packages/icons/svg/24/Emoji.svg

<svg width="24" height="24" viewBox="0 0 24 24" fill="none" xmlns="http://www.w3.org/2000/svg">
<path d="M8 2H16C19.3137 2 22 4.68629 22 8V16C22 19.3137 19.3137 22 16 22H8C4.68629 22 2 19.3137 2 16V8C2 4.68629 4.68629 2 8 2Z" fill="#858585"/>
<path fill-rule="evenodd" clip-rule="evenodd" d="M4 8C4 5.79086 5.79086 4 8 4H16C18.2091 4 20 5.79086 20 8V16C20 18.2091 18.2091 20 16 20H8C5.79086 20 4 18.2091 4 16V8ZM10 10.5C10 11.3284 9.32843 12 8.5 12C7.67157 12 7 11.3284 7 10.5C7 9.67157 7.67157 9 8.5 9C9.32843 9 10 9.67157 10 10.5ZM15.5 12C16.3284 12 17 11.3284 17 10.5C17 9.67157 16.3284 9 15.5 9C14.6716 9 14 9.67157 14 10.5C14 11.3284 14.6716 12 15.5 12ZM15.8891 15.8891C13.7412 18.037 10.2588 18.037 8.11091 15.8891C7.72039 15.4986 7.72039 14.8654 8.11091 14.4749C8.50144 14.0843 9.1346 14.0843 9.52513 14.4749C10.892 15.8417 13.108 15.8417 14.4749 14.4749C14.8654 14.0843 15.4986 14.0843 15.8891 14.4749C16.2796 14.8654 16.2796 15.4986 15.8891 15.8891Z" fill="white"/>
</svg>

<svg width="24" height="24" fill="none" xmlns="http://www.w3.org/2000/svg" viewBox="0 0 24 24"><path d="M8 2h8a6 6 0 016 6v8a6 6 0 01-6 6H8a6 6 0 01-6-6V8a6 6 0 016-6z" fill="currentColor"></path><path fill-rule="evenodd" clip-rule="evenodd" d="M4 8a4 4 0 014-4h8a4 4 0 014 4v8a4 4 0 01-4 4H8a4 4 0 01-4-4V8zm6 2.5a1.5 1.5 0 11-3 0 1.5 1.5 0 013 0zm5.5 1.5a1.5 1.5 0 100-3 1.5 1.5 0 000 3zm.39 3.89a5.5 5.5 0 01-7.78 0 1 1 0 111.415-1.415 3.5 3.5 0 004.95 0 1 1 0 111.414 1.414z" fill="#fff"></path></svg>
